X:1
T:Title
%%score 1 2
L:1/8
Q:1/4=100
M:4/4
K:Db
V:1 treble nm="Grand Piano, Soprano"
V:2 bass nm="Choir Pad, For Christ and the Church"
V:1
 [FA]2 [FA]2 [DF]>[EG] [FA]2 | [DF][DE] D2 D2 [Fd]2 | [Ac][GB] [FA]2 [FA]>[GB] [FA]2 | %3
w: By~William~James~Kirkpatrick * * * *|||
 [EG][DF] [DF]2 [B,E][B,D] [CE]2 | [CA][EG] [DF]2 [DF]>[CE] D2 | [DF][EG] [FA]2 [Fd]2 [Fd]2- | %6
w: |||
 [Fd][FA] [GB]2 [Gd]>[GB] [FA]2 | D[DG] [DF]2 [CE]>[CE] D2 | A2 [Gc]4- [Gc]>[Gc] | %9
w: |||
 [GB]>[Gc] [Fd]4 [FA]2 | [FA]2 [GB]4- [GB]>[Bd] | [Ac]>[GB] [FA]6 | [FA]>[FA] [Fd]4- [Fd]>[Fd] | %13
w: ||||
 [Gc]>[Ad] [Ge]2 [Gd]4 | [GB]2 [FA]2- [FA][FA] [GB]2 | [Gc]2 [Fd]6- | [Fd]2 z2 z4 |] %17
w: ||||
V:2
 [D,D]2 [D,D]2 [D,A,]>[D,A,] [D,D]2 | [D,A,][D,G,] [D,F,]2 [D,F,]2 [D,A,]2 | %2
 [D,D][D,D] [D,D]2 [D,D]>[D,D] [D,D]2 | [C,A,][D,A,] [B,,B,]2 [E,=G,][E,G,] [A,,A,]2 | %4
 [A,,A,][A,,A,] [D,A,]2 [D,A,]>[D,G,] [D,F,]2 | [D,A,][D,A,] [D,A,]2 [D,A,]2 [D,A,]2- | %6
 [D,A,][D,D] [G,D]2 [G,B,]>[G,D] [D,D]2 | [F,A,][G,B,] A,2 [A,,G,]>[A,,G,] [D,F,]2 | %8
 z4 [A,E]2 [A,E]>[A,E] | [A,E]>A, [D,A,]4 [D,D]2 | z4 [G,D]2 [G,D]>[G,D] | [G,D]>[G,D] [D,D]6 | %12
 z4 [D,A,]>[D,A,] [D,A,]>[D,A,] | [E,A,]>[F,A,] [G,B,]2 [G,B,]4 | %14
 [G,D]2 [A,D]2- [A,D][A,D] [A,C]2 | [A,,A,]2 [D,A,]6- | [D,A,]2 z2 z4 |] %17

